X:18
T:Rose Tree Quick Step,The. JBs.018
S:Jas.Blackshaw MS, 1837, N.Shropshire
Z:Tony Weatherall 2006
M:2/4
L:1/8
Q:1/4=90
A:North Shropshire
R:Country Dance
K:F
a/g/|fdcA|c2cc|ffg f/a/|bgg a/g/|fdcA|c2cc|ff (g/a/b/g/)|aff:|!
|:g|a>g ab|câ€™2ba|gdâ€™dâ€™câ€™|dâ€™gg a/g/|fdcA|c2cc|ff g/a/b/g/|aff:|

